; set hotend temperature to 30°C (only bc the machine hates us)
M104 S180

G1 X-40.00 Y30.00 Z100.00  F4800.00
G1    E200.00 F600.00
G1 X31.00 Y-15.00   F4800.00
G1 X30.54 Y-9.79  E205.23 F848.53
G1 X29.19 Y-4.74  E210.46 F848.53
G1 X26.98 Y-0.00  E215.69 F848.53
G1 X23.98 Y4.28  E220.92 F848.53
G1 X20.28 Y7.98  E226.15 F848.53
G1 X16.00 Y10.98  E231.38 F848.53
G1 X11.26 Y13.19  E236.61 F848.53
G1 X6.21 Y14.54  E241.83 F848.53
G1 X1.00 Y15.00  E247.06 F848.53
G1 X-4.21 Y14.54  E252.29 F848.53
G1 X-9.26 Y13.19  E257.52 F848.53
G1 X-14.00 Y10.98  E262.75 F848.53
G1 X-18.28 Y7.98  E267.98 F848.53
G1 X-21.98 Y4.28  E273.21 F848.53
G1 X-24.98 Y-0.00  E278.44 F848.53
G1 X-27.19 Y-4.74  E283.67 F848.53
G1 X-28.54 Y-9.79  E288.90 F848.53
G1 X-29.00 Y-15.00  E294.13 F848.53
G1 X-28.54 Y-20.21  E299.36 F848.53
G1 X-27.19 Y-25.26  E304.59 F848.53
G1 X-24.98 Y-30.00  E309.82 F848.53
G1 X-21.98 Y-34.28  E315.05 F848.53
G1 X-18.28 Y-37.98  E320.27 F848.53
G1 X-14.00 Y-40.98  E325.50 F848.53
G1 X-9.26 Y-43.19  E330.73 F848.53
G1 X-4.21 Y-44.54  E335.96 F848.53
G1 X1.00 Y-45.00  E341.19 F848.53
G1 X6.21 Y-44.54  E346.42 F848.53
G1 X11.26 Y-43.19  E351.65 F848.53
G1 X16.00 Y-40.98  E356.88 F848.53
G1 X20.28 Y-37.98  E362.11 F848.53
G1 X23.98 Y-34.28  E367.34 F848.53
G1 X26.98 Y-30.00  E372.57 F848.53
G1 X29.19 Y-25.26  E377.80 F848.53
G1 X30.54 Y-20.21  E383.03 F848.53
G1 X-12.48 Y-21.58   F4800.00
G1 X-11.14 Y-23.82  E385.64 F848.53
G1 X-9.42 Y-25.79  E388.26 F848.53
G1 X-7.39 Y-27.44  E390.87 F848.53
G1 X-5.10 Y-28.70  E393.49 F848.53
G1 X-2.63 Y-29.55  E396.10 F848.53
G1 X-0.05 Y-29.96  E398.72 F848.53
G1 X2.57 Y-29.92  E401.33 F848.53
G1 X5.13 Y-29.42  E403.94 F848.53
G1 X7.58 Y-28.48  E406.56 F848.53
G1 X9.82 Y-27.14  E409.17 F848.53
G1 X11.79 Y-25.42  E411.79 F848.53
G1 X13.44 Y-23.39  E414.40 F848.53
G1 X-7.00 Y-6.00   F4800.00
G1    E422.40 F600.00
G1 X8.00 Y-6.00   F4800.00
G1    E430.40 F600.00

M104 S0 ; turn off hot end